img/circlesmall-close.svg

<svg xmlns='http://www.w3.org/2000/svg' width='16' height='16' viewBox='0 0 16 16'><path d='M2,8c0-3.313,2.687-6,6-6s6,2.687,6,6s-2.686,6-6,6S2,11.314,2,8z M8,13c2.762,0,5-2.238,5-5s-2.238-5-5-5S3,5.238,3,8S5.238,13,8,13z'/><path d='M5 6.5l1.5-1.5 4.5 4.5-1.5 1.5z'/><path d='M9.5 5l1.5 1.5-4.5 4.5-1.5-1.5z'/></svg>

<svg xmlns='http://www.w3.org/2000/svg' width='16' height='16' viewBox='0 0 16 16'><path d='M2 8a6 6 0 1 1 12.002.002A6 6 0 0 1 2 8zm6 5c2.762 0 5-2.238 5-5s-2.238-5-5-5-5 2.238-5 5 2.238 5 5 5z'/><path d='M5 6.5L6.5 5 11 9.5 9.5 11z'/><path d='M9.5 5L11 6.5 6.5 11 5 9.5z'/></svg>
